svg/icon-info.svg

<svg width="32" height="32" xmlns="http://www.w3.org/2000/svg"><path d="M29.8193559,7.95909344 C28.3902982,5.51080716 26.4515944,3.57229423 24.0032445,2.14323658 C21.5543221,0.714369781 18.880827,0 15.9816779,0 C13.0821471,0 10.4080795,0.714369781 7.95979324,2.14323658 C5.51125249,3.57203976 3.57273956,5.51055268 2.14355467,7.95909344 C0.714369781,10.4078887 0,13.0818926 0,15.9811054 C0,18.8803817 0.714560636,21.554004 2.14323658,24.0029264 C3.57267594,26.4509583 5.51118887,28.3897256 7.95953877,29.8187833 C10.4080795,31.247841 13.0818926,31.9620835 15.9814235,31.9620835 C18.8806998,31.9620835 21.5544493,31.2477773 24.0031173,29.8187833 C26.4512763,28.3899801 28.390171,26.4512763 29.8190378,24.0029264 C31.2476501,21.5543221 31.9621471,18.8801909 31.9621471,15.9811054 C31.9620835,13.0816382 31.2476501,10.407507 29.8193559,7.95909344 Z M13.3177893,3.99497416 C13.3177893,3.8006839 13.3801988,3.64132008 13.5050815,3.51650099 C13.6300278,3.39180915 13.7897097,3.32920875 13.9837455,3.32920875 L17.979165,3.32920875 C18.1737734,3.32920875 18.333328,3.39180915 18.4573201,3.51650099 C18.5820755,3.64132008 18.6448668,3.80074751 18.6448668,3.99497416 L18.6448668,7.32450099 C18.6448668,7.51872763 18.5820755,7.67834592 18.4573201,7.80297416 C18.3333917,7.92772962 18.1737734,7.99007555 17.979165,7.99007555 L13.9837455,7.99007555 C13.7896461,7.99007555 13.6299642,7.92772962 13.5050815,7.80297416 C13.3801988,7.67834592 13.3177893,7.51872763 13.3177893,7.32450099 L13.3177893,3.99497416 Z M21.3081829,25.9693042 C21.3081829,26.1634036 21.2455189,26.3231491 21.1214632,26.4473956 C20.9968986,26.5722783 20.8372803,26.634497 20.6428628,26.634497 L11.320493,26.634497 C11.1256938,26.634497 10.9665209,26.5722147 10.841829,26.4473956 C10.7168191,26.322831 10.6544732,26.1630855 10.6544732,25.9689861 L10.6544732,22.6394592 C10.6544732,22.4447873 10.7168191,22.2858052 10.841829,22.1608588 C10.9665209,22.0362942 11.1262028,21.9736302 11.320493,21.9736302 L13.3177893,21.9736302 L13.3177893,15.3149583 L11.320493,15.3149583 C11.1256938,15.3149583 10.9667117,15.2526123 10.841829,15.1278569 C10.7168191,15.0031014 10.6544732,14.8434831 10.6544732,14.6491292 L10.6544732,11.3199205 C10.6544732,11.1256302 10.7168191,10.9662028 10.841829,10.8412565 C10.9667117,10.7164374 11.1263936,10.6540915 11.320493,10.6540915 L17.9792286,10.6540915 C18.173837,10.6540915 18.3333917,10.7164374 18.4573837,10.8412565 C18.5821392,10.9662028 18.6449304,11.1256302 18.6449304,11.3199205 L18.6449304,21.9738847 L20.642163,21.9738847 C20.8367078,21.9738847 20.9962624,22.0364215 21.1206362,22.1611133 C21.2448827,22.2858688 21.3077376,22.4454871 21.3077376,22.6396501 L21.3081829,25.9693042 Z" fill="currentColor" fill-rule="nonzero"/></svg>

<svg width="32" height="32" xmlns="http://www.w3.org/2000/svg"><path d="M29.82 7.96a15.915 15.915 0 0 0-5.817-5.817C21.554.714 18.881 0 15.982 0c-2.9 0-5.574.714-8.022 2.143A15.91 15.91 0 0 0 2.144 7.96C.714 10.408 0 13.082 0 15.981c0 2.9.715 5.573 2.143 8.022a15.92 15.92 0 0 0 5.817 5.816c2.448 1.429 5.122 2.143 8.021 2.143 2.9 0 5.573-.714 8.022-2.143a15.912 15.912 0 0 0 5.816-5.816c1.429-2.449 2.143-5.123 2.143-8.022 0-2.9-.714-5.573-2.143-8.022zM13.317 3.994c0-.194.062-.354.187-.478a.65.65 0 0 1 .479-.188h3.995c.195 0 .354.063.478.188a.648.648 0 0 1 .188.478v3.33a.648.648 0 0 1-.188.478.645.645 0 0 1-.478.187h-3.995a.649.649 0 0 1-.479-.187.647.647 0 0 1-.187-.478v-3.33zm7.99 21.974a.649.649 0 0 1-.187.478.647.647 0 0 1-.478.187H11.32a.647.647 0 0 1-.478-.187.647.647 0 0 1-.188-.478v-3.33c0-.194.063-.353.188-.478a.649.649 0 0 1 .478-.187h1.998v-6.659H11.32a.648.648 0 0 1-.478-.187.647.647 0 0 1-.188-.479v-3.33c0-.193.063-.353.188-.478a.649.649 0 0 1 .478-.187h6.66c.194 0 .353.062.477.187a.649.649 0 0 1 .188.479v10.654h1.997c.195 0 .354.062.479.187a.65.65 0 0 1 .187.479v3.33z" fill="currentColor" fill-rule="nonzero"/></svg>
